X: 1
T: Friel's
M: 4/4
L: 1/8
R: reel
K: Amix
A2eA cded|BG (3GGG DGBG|EAc(e ^ga)ed|ced(B {d}BA)GB|
(3AAA eA cded|BG (3GGG DGBG|EAc(e ^ga)ed|1 ced(B {d}BA)AG:|2 ced(B {d}BA)A^g:|
a2a^g a=ge(a|{b}ag)ed efg^g|aece ~a3 f|gedg eA (3AAA|
e ~a3 age(a|{b}ag)ed efga|(3bb(g a) ~g3 fa|ged(B {d}BA)Ae|
aA (3AA(A a)(Aa)(A|g)A (3AA(A g)AA^g|aece ~a3 f|gedg eA (3AAA|
e ~a3 age(a|{b}ag)ed efga|(3bb(g a) ~g3 fa|ged(B {d}BA)GB|&quot;last time&quot;[A4E4]||
